dist/icons/svgs/camera-circle-outline.svg

<svg xmlns="http://www.w3.org/2000/svg" width="24" height="24" fill="currentcolor" class="icon-camera-circle-outline" viewBox="0 0 24 24">
  <path d="M20.125 12C20.125 9.10938 18.5625 6.45312 16.0625 4.96875C13.5234 3.52344 10.4375 3.52344 7.9375 4.96875C5.39844 6.45312 3.875 9.10938 3.875 12C3.875 14.9297 5.39844 17.5859 7.9375 19.0703C10.4375 20.5156 13.5234 20.5156 16.0625 19.0703C18.5625 17.5859 20.125 14.9297 20.125 12ZM2 12C2 8.44531 3.875 5.16406 7 3.36719C10.0859 1.57031 13.875 1.57031 17 3.36719C20.0859 5.16406 22 8.44531 22 12C22 15.5938 20.0859 18.875 17 20.6719C13.875 22.4688 10.0859 22.4688 7 20.6719C3.875 18.875 2 15.5938 2 12ZM9.65625 8.25L9.89062 7.625C10.0078 7.27344 10.3594 7 10.75 7H13.2109C13.6016 7 13.9531 7.27344 14.0703 7.625L14.3438 8.25H15.75C16.4141 8.25 17 8.83594 17 9.5V14.5C17 15.2031 16.4141 15.75 15.75 15.75H8.25C7.54688 15.75 7 15.2031 7 14.5V9.5C7 8.83594 7.54688 8.25 8.25 8.25H9.65625ZM13.875 12C13.875 11.3359 13.4844 10.75 12.9375 10.3984C12.3516 10.0469 11.6094 10.0469 11.0625 10.3984C10.4766 10.75 10.125 11.3359 10.125 12C10.125 12.7031 10.4766 13.2891 11.0625 13.6406C11.6094 13.9922 12.3516 13.9922 12.9375 13.6406C13.4844 13.2891 13.875 12.7031 13.875 12Z"/>
</svg>

<svg xmlns="http://www.w3.org/2000/svg" width="24" height="24" fill="currentColor" class="icon-camera-circle-outline" viewBox="0 0 24 24">
  <path d="M20.125 12c0-2.89-1.562-5.547-4.062-7.031-2.54-1.446-5.625-1.446-8.125 0C5.398 6.453 3.875 9.109 3.875 12a8.13 8.13 0 0 0 4.063 7.07c2.5 1.446 5.585 1.446 8.125 0 2.5-1.484 4.062-4.14 4.062-7.07M2 12a9.93 9.93 0 0 1 5-8.633c3.086-1.797 6.875-1.797 10 0 3.086 1.797 5 5.078 5 8.633 0 3.594-1.914 6.875-5 8.672-3.125 1.797-6.914 1.797-10 0C3.875 18.875 2 15.594 2 12m7.656-3.75.235-.625A.93.93 0 0 1 10.75 7h2.46c.392 0 .743.273.86.625l.274.625h1.406c.664 0 1.25.586 1.25 1.25v5c0 .703-.586 1.25-1.25 1.25h-7.5c-.703 0-1.25-.547-1.25-1.25v-5c0-.664.547-1.25 1.25-1.25zM13.875 12c0-.664-.39-1.25-.937-1.602-.586-.351-1.329-.351-1.876 0-.585.352-.937.938-.937 1.602 0 .703.352 1.29.938 1.64.546.352 1.289.352 1.874 0 .547-.35.938-.937.938-1.64"/>
</svg>
